!!!!SEGMENT: pl-wnifc--6802-n--001_worobecki-jozef--introdukcja.krn
!!!cenid: 18xx:4049
!!!COM: Worobecki, Józef
!!!COM-rismID: pe50048108
!!!CDT:
!!!CNT:
!!!OTL: Introdukcja
!!!PDT:
!!!AGN:
!!!SMS-siglum: PL-Wnifc
!!!SMS-shelfmark: 6802/n
!!!SMS-shelfwork: 001 W
!!!SMS-variant:
!!!SMS-altvar:
!!!NIFC-rismSourceID: 1001158042
!!!NIFC-rismChildID: 1001158042
!!!NIFC-islandoraID: nifc:213559
!!!URL-pdf-islandora: https://repozytorium.nifc.pl/islandora/object/nifc%3A213559/datastream/PDF/view
!!!URL-scan: https://polish.musicsources.pl/pl/lokalizacje/galeria/druki-muzyczne/16922-3-mazury/2 @EN{Scan on Polish Music Sources Website} @PL{Skany w portalu Dziedzictwo Muzyki Polskiej w otwartym dostępie}
!!!ONB-nifc: UWAGA: w zbiorze: 1. Introdukcja, 2. Mazur No. 1, 3. Mazur No. 2, 4. Mazur No. 3, 5. Coda
!!!OMD: Moderato.
!!!AIN: 1 piano
!!!key: G
**kern	**kern	**dynam
*part1	*part1	*part1
*staff2	*staff1	*
*I"[Pianoforte]	*I"[Pianoforte]	*
*Ipiano	*Ipiano	*
*ICklav	*ICklav	*
*clefF4	*clefG2	*
*k[f#]	*k[f#]	*
*G:	*G:	*
*M3/8	*M3/8	*
=1	=1	=1
!	!LO:TX:a:t=Introdukcja.	!
16d\LL	16dd\LL	mf
16B\JJ	16b\JJ	.
8G\L	8g\L	.
8B\J	8b\J	.
=2	=2	=2
8A\	8a\	.
4D^>/	4d^/	.
=3	=3	=3
(16C/LL	4.r	.
16BB/	.	.
16AA/	.	.
16GG/	.	.
16FF#/	.	.
16GG/JJ)	.	.
=4	=4	=4
8AA/	4.r	.
4DD^^/	.	.
=5	=5	=5
4.r	(4.a\	p
!!LO:LB:g=original
=6	=6	=6
!	!LO:N:vis=4	!
4.r	8dd\)	.
.	8r	.
.	16a\LL	.
.	16a\JJ	.
=7	=7	=7
4.r	[4.dd\	.
=8	=8	=8
!	!LO:N:vis=4	!
4.r	8dd\]	.
.	8r	.
.	8r	.
=9	=9	=9
(8qC#X/	.	.
4.D 4.GG/)	4.r	.
=10	=10	=10
(8qC#X/	.	.
4.D 4.GG/)	4.r	.
=11	=11	=11
4.D 4.GG/	8d/	.
.	16g/LL	.
.	16g/JJ	.
.	8a/	.
=12	=12	=12
4.D 4.GG\	8b\L	.
!	!LO:TUP:a:problem:klamra łukowa	!
.	24b\L	.
.	24cc\	.
.	24b\JJ	.
.	16.a\LL	.
.	32g\JJk	.
!!LO:LB:g=original
=13	=13	=13
4D 4GG/	16.dd\LL	.
.	.	<
.	32gg\JJk	.
.	8gg\L	.
8E 8GG/	8ee\J	[
=14	=14	=14
8D 8GG/	8dd	.
!	!LO:TX:t=P:problem=brak pauzy 8r	!
4D 4GG/	8ryy	.
.	8b\	.
=15	=15	=15
4.F# 4.D 4.GG/	16.dd\LL	.
.	32cc\JJk	<
.	8a\L	.
.	8cc\J	.
=16	=16	=16
4.G 4.D 4.GG/	16.b\LL	.
.	32b\JJk	[[
.	8a\L	.
.	8g\J	.
=17	=17	=17
4.F# 4.D 4.GG/	16a\LL	.
!	!LO:TUP:a:problem:klamra łukowa	!
.	48a\L	.
.	48b\	.
.	48a\JJJ	.
.	8f#/L	.
.	8d/J	.
!!LO:LB:g=original
=18	=18	=18
4G 4D 4GG/	(16g/LL	.
.	16d/	.
.	16c#X/	.
.	16d/	.
8r	16e/	.
.	16f#/JJ)	.
=19	=19	=19
!	!LO:TUP:b:problem:klamra łukowa	!
8GL 8GG\	24g/LL	f
.	24g/	.
.	24g/JJ	.
8B 8G 8D\	8g/L	.
8F#J 8D\	8a/J	.
=20	=20	=20
8GL 8GG\	16b\LL	.
!	!LO:TUP:a:problem:klamra łukowa	!
.	48b\L	.
.	48cc\	.
.	48b\JJJ	.
8B 8G 8D\	8a\L	.
8BJ 8G 8D\	8g\J	.
=21	=21	=21
!	!LO:N:vis=16	!
8GG 8GGG/	(16.dd\LL	.
.	32gg\JJk)	.
8dL 8B 8G\	8gg\L	.
8eJ 8c 8G\	8ee\J	.
=22	=22	=22
!LO:TX:t=P:problem=mixed beam	!	!
8BBL 8BBB/	4dd\	.
8d 8B 8G\	.	.
8dJ 8B 8G\	8b/	.
!!LO:LB:g=original
=23	=23	=23
8D 8DD/	(16.dd\LL	.
.	32ee-X\JJk	.
4c 4F# 4D\	8dd\L)	.
.	8a\J	.
=24	=24	=24
8D 8DD/	(16.dd\LL	.
.	32ee-X\JJk	.
4B 4G 4D\	8dd\L)	.
.	(16g\L	.
.	16a\JJ)	.
=25	=25	=25
8E-X 8EE-X\	16.b-X\LL	<
.	32b-\JJk	.
8cL 8G 8E-\	8a\L	.
8c#XJ 8G 8E-\	8g\J	[
=26	=26	=26
8DL 8DD\	4dd 4f#\	.
8dJ 8A 8F# 8D\	.	.
8r	16.a\LL	.
.	32a\JJk	p
=27	=27	=27
4.r	4dd\	.
!	!LO:N:vis=16	!
.	16.a\LL	.
.	32a\JJk	.
!!LO:PB:g=original
=28	=28	=28
8r	4dd\	.
8r	.	.
!	!	!LO:DY:b=2
16.AA/LL	8r	pp
32AA/JJk	.	.
=29	=29	=29
16D/LL	4.r	.
32AA/L	.	.
32AA/JJJ	.	.
16D/LL	.	.
32AA/L	.	.
32AA/JJJ	.	.
16D/LL	.	.
32AA/L	.	.
32AA/JJJ	.	.
=30	=30	=30
!LO:N:vis=4	!	!
8D/	4.r	.
8r	.	.
8r	.	.
=31	=31	=31
8DL 8FF#\	[4.ddT\	<
8A 8D\	.	.
8BJ 8G\	.	.
=32	=32	=32
8cL 8A\	4.dd\]	[
8B 8G\	.	.
8AJ 8F#\	.	.
==	==	==
*-	*-	*-
!!!system-decoration: {(*)}
!!!RDF**kern: > = above
!!!RDF**dynam: p = "p."
!!!RDF**dynam: mf = "mf."
!!!ENC: Filip Voros
!!!END: 2022-08-14
!!!ENC: Andrzej Kubiczek
!!!END: 2022-09-16!!!YEC: Copyright 2022 Narodowy Instytut Fryderyka Chopina (https://polishscores.org)
!!!YEM: License CC-BY-4.0 (https://creativecommons.org/licenses/by/4.0)
